X:1
T:Erat autem in civitate Samariae
T:Jan Tollius
T:Erat autem in civitate Samariae
C:Jan Tollius
%%score [ 1 2 3 ]
L:1/8
Q:1/4=66
M:4/4
K:C
V:1 treble nm="Soprano" snm="S"
V:2 treble-8 nm="Tenor" snm="T"
V:3 bass nm="Bass" snm="B"
V:1
 z8 | z2 z c AB c2 | BccB c2 c2 | BA A4 ^G2 | A e>dc BA B/E/e- | e/d/c/B/ A4 ^G2 | z8 | %7
w: |in ci- vi- ta-|te Sa- ma- ri- ae vir|qui- * * *|dam, no- mi- ne Si- mon Ma- * *|* * * * * gus,||
 z2 z c AB c2 | BccB c2 c2 | BA A4 ^G2 | Ae- e/d/c BA B/E/e- | e/d/c/B/ A4 ^G2 | z4 B>c dD | %13
w: in ci- vi- ta-|te Sa- ma- ri- ae vir|qui- * * *|dam, no- * mi- ne Si- mon Ma- * *|* * * * * gus,|vi- * * dens|
 F>G A>B cB/A/ BB | z A2 ^G A/B/c BB | cA e>d c/B/A/4G/4F/4E/4 D2 | E4 z2 e>d | %17
w: si- * * * * * * * gna|et vir- tu- * * tes A-|po- sto- lo- * * * * * * * *|rum, stu- pens|
 cB/A/ GG e>d cB/A/ | ^G A2 G A4 |[M:6/8] z3 E>FG | A2 E A>Bc | B2 B e e>d | c c/B/ A3/2G/4F/4 G2 | %23
w: ad- mi- ra- ba- tur: stu- pens ad- mi- ra-|ba- * * tur:|Ob- tu- lit|e- is Ob- tu- lit|e- is pe- cu- ni-|am, di- * * * * *|
 ^F3 z z z | E>FG A2 E | A>Bc B2 B | e e>d c c/B/A- | A/G/4F/4 G2 ^F3 ||[M:4/4] B4 B4 | c4 B4 | %30
w: cens:|Ob- tu- lit e- is|Ob- tu- lit e- is|pe- cu- ni- am, di- * *|* * * * cens:|Da- te|et mi-|
 E3 G AG ^F2 | G4 z C>B,C/D/ | E2 B,B, DC/B,/ A,/B,/C/D/ | E F2 E F3 F | ^GA G2 A4 | %35
w: hi hanc po- te- sta-|tem. Da- * * *|* te et mi- * * * * * *|* * * hi hanc|po- te- sta- tem.|
 z2 z E>DE/F/ G2 | CC F/G/A/F/ ^G A2 G | A3 d cB A2 | B8 ||[M:6/8] G2 G c>B A/G/ | %40
w: Da- * * * *|te et mi- * * * * * *|hi hanc po- te- sta-|tem.|Re- spon- de- * * *|
 c3/2B/4A/4B cc c/B/ | A/G/FG A3 | G2 G c>B A/G/ | c3/2B/4A/4B cc c/B/ |[M:3/8] A/G/FG | %45
w: * * * * runt A- po- *|* * * sto- li:|Re- spon- de- * * *|* * * * runt A- po- *|* * * sto-|
[M:4/4] A4 z4 | z e e>d c2 B2 | A4 z4 | c>B AG/F/ E>D CB, | z E E>^F ^G2 A2 | E4 z4 | %51
w: li:|Pe- cu- ni- a tu-|a|te- cum sit in per- di- ti- o- nem:|Pe- cu- ni- a tu-|a|
 c>B AG/F/ E>D CB, | z e e>d c2 B2 | A4 z4 | c>B AG/F/ E>D CB, | z4 E3 E | ^F>F FF G3 G | %57
w: te- cum sit in per- di- ti- o- nem:|Pe- cu- ni- a tu-|a|te- cum sit in per- di- ti- o- nem:|Qui- a|do- num san- cti Spi- ri-|
 C2 z C E>F G2 | GD E>E E e>dc- | cB/A/ B2 B4 | z4 E3 E | ^F>F FF G3 G | C2 z C E>F G2 | %63
w: tus te cre- di- di-|sti pe- cu- ni- is com- pa- ra-|* * * * re.|Qui- a|do- num san- cti Spi- ri-|tus te cre- di- di-|
 GD E>E E e>dc- | cB/A/ B2 B4 |] %65
w: sti pe- cu- ni- is com- pa- ra-|* * * * re.|
V:2
 B3 B c2 Be | cd e2 de ed/c/ | d3 d c2 e2 | d3 c B4 | A2 z e>dc BE | e>d c/B/c B4 | B3 B c2 Be | %7
w: E- rat au- tem in|ci- vi- ta- te Sa- ma- * *|* ri- ae vir|qui- * *|dam, no- mi- ne Si- mon|Ma- * * * * gus,|E- rat au- tem in|
 cd e2 de ed/c/ | d3 d c2 e2 | d3 c B4 | A2 z e>dc BE | e>d c/B/c B4 | z2 e>f gG B>c | %13
w: ci- vi- ta- te Sa- ma- * *|* ri- ae vir|qui- * *|dam, no- mi- ne Si- mon|Ma- * * * * gus,|vi- * * dens si- *|
 d2 ^c2 z A2 ^G | A/B/c BB cA e>d | c/B/ A2 ^G A/B/ c2 B | c4 z4 | g>f ee/d/ cB g>f | ed/c/ B2 A4 | %19
w: * gna et vir-|tu- * * tes A- po- sto- lo- *||rum,|stu- pens ad- mi- ra- ba- tur: stu- pens|ad- mi- ra- ba- tur:|
[M:6/8] ^G>AB c2 B | ^c>de f2 e | e e>d c c>B | c/A/ f>e d3/2c/4B/4^c | d3 ^G>AB | c2 B ^c>de | %25
w: Ob- tu- lit e- is|Ob- tu- lit e- is|pe- cu- ni- am, di- *||cens: Ob- tu- lit|e- is Ob- tu- lit|
 f2 e e e>d | c c>B c/A/ f>e | d3/2c/4B/4^c d3 ||[M:4/4] z e>de/f/ g2 dd | %29
w: e- is pe- cu- ni-|am, di- * * * * *|* * * * cens:|Da- * * * * te et|
 e/f/g/e/ f/e/c/d/ ed/c/ d2 | c3 c cB A2 | G4 g4 | g4 a4 | g4 c3 d | BA B2 A4 | z G>FG/A/ B2 BG | %36
w: mi- * * * * * * * * * * *|hi hanc po- te- sta-|tem. Da-|te et|mi- hi hanc|po- te- sta- tem.|Da- * * * * te et|
 A>G A/B/ c2 B/A/ B2 | ^c3 d eg ^f2 | g8 ||[M:6/8] z z c2 cf- | f/e/ d/c/f eee- | %41
w: mi- * * * * * * *|hi hanc po- te- sta-|tem.|Re- spon- de-|* * * * * runt A- po-|
 e/d/4c/4 d>d ^c3 | z z c2 cf- | f/e/ d/c/f eee- |[M:3/8] e/d/4c/4 d>d |[M:4/4] ^c4 z2 z E | %46
w: * * * * sto- li:|Re- spon- de-|* * * * * runt A- po-|* * * * sto-|li: Pe-|
 E>^F ^G2 A2 E2 | z4 c>B AG/F/ | E>D CB, z2 z e | e>d c2 B2 A2 | z4 c>B AG/F/ | E>D CB, z2 z E | %52
w: cu- ni- a tu- a|te- cum sit in per-|di- ti- o- nem: Pe-|cu- ni- a tu- a|te- cum sit in per-|di- ti- o- nem: Pe-|
 E>^F ^G2 A2 E2 | z4 c>B AG/F/ | E>D CB, z4 | B3 B ^c>c cc | d3 d G2 z G | A>B c2 cA B>B | %58
w: cu- ni- a tu- a|te- cum sit in per-|di- ti- o- nem:|Qui- a do- num san- cti|Spi- ri- tus te|cre- di- di- sti pe- cu- ni-|
 B B2 c e>d c/B/A- | A^G/^F/ G2 G4 | B3 B ^c>c cc | d3 d G2 z G | A>B c2 cA B>B | %63
w: is com- pa- ra- * * * *|* * * * re.|Qui- a do- num san- cti|Spi- ri- tus te|cre- di- di- sti pe- cu- ni-|
 B B2 c e>d c/B/A- | A^G/^F/ G2 G4 |] %65
w: is com- pa- ra- * * * *|* * * * re.|
V:3
 z4 E,3 E, | F,2 E,A, F,G, A,2 | G,F, G,>G, C,4 | D,4 E,4 | A,,2 C,>D, E, A,2 ^G, | A,4 E,4 | %6
w: E- rat|au- tem in ci- vi- ta-|te Sa- ma- ri- ae|vir qui-|dam, no- mi- ne Si- mon|Ma- gus,|
 z4 E,3 E, | F,2 E,A, F,G, A,2 | G,F, G,>G, C,4 | D,4 E,4 | A,,2 C,>D, E, A,2 ^G, | A,4 E,4 | %12
w: E- rat|au- tem in ci- vi- ta-|te Sa- ma- ri- ae|vir qui-|dam, no- mi- ne Si- mon|Ma- gus,|
 A,>B, CC, G,3 F,/E,/ | D,C,/B,,/ A,,3 G,,/F,,/ E,,2 | A,,2 z2 z A,2 ^G, | A,/B,/C B,B, CF, G,2 | %16
w: vi- * * dens si- * *||gna et vir-|tu- * * tes A- po- sto- lo-|
 C,4 C>B, A,G,/F,/ | E,E, C>B, A,G,/F,/ E,2- | E,4 A,,4 |[M:6/8] E,>F,G, A,2 E, | %20
w: rum, stu- pens ad- mi- ra-|ba- tur: stu- pens ad- mi- ra- ba-|* tur:|Ob- tu- lit e- is|
 A,,>B,,C, D,2 A,, | E,>F,G, A,2 E, | A, A,>G, F, E,2 | D,3 E,>F,G, | A,2 E, A,,>B,,C, | %25
w: Ob- tu- lit e- is|Ob- tu- lit e- is|pe- cu- ni- am, di-|cens: Ob- tu- lit|e- is Ob- tu- lit|
 D,2 A,, E,>F,G, | A,2 E, A, A,>G, | F, E,2 D,3 ||[M:4/4] z2 z E,>D,E,/F,/ G,2 | %29
w: e- is Ob- tu- lit|e- is pe- cu- ni-|am, di- cens:|Da- * * * *|
 C,C, F,/G,/A,/F,/ ^G, A,2 G, | A,3 E, ^F,G, D,2 | G,,4 z2 z C,- | %32
w: te et mi- * * * * * *|hi hanc po- te- sta-|tem. Da-|
 C,/B,,/C,/D,/ E,2 D,D, F,/G,/A,/B,/ | CB,/A,/ G,2 F,3 D, | E,F, E,2 A,4 | E,4 E,4 | F,4 E,4 | %37
w: * * * * * te et mi- * * *|* * * * hi hanc|po- te- sta- tem.|Da- te|et mi-|
 A,,3 B,, C,G,, D,2 | G,,8 ||[M:6/8] z C,2 C, F,>E, | D,/C,/ D,2 C,2 A,,- | A,, _B,,>B,, A,,3 | %42
w: hi hanc po- te- sta-|tem.|Re- spon- de- *|* * * runt A-|* po- sto- li:|
 z C,2 C, F,>E, | D,/C,/ D,2 C,2 A,,- |[M:3/8] A,, _B,,>B,, |[M:4/4] A,,4 z E, E,>D, | %46
w: Re- spon- * *|* * * runt A-|* po- sto-|li: Pe- cu- ni-|
 C,2 B,,2 A,,2 z2 | F,>E, D,C,/B,,/ A,,>G,, F,,E,, | z4 z E, E,>^F, | ^G,2 A,2 E,2 z2 | %50
w: a tu- a|te- cum sit in per- di- ti- o- nem:|Pe- cu- ni-|a tu- a|
 C>B, A,G,/F,/ E,>D, C,B,, | z4 z E, E,>D, | C,2 B,,2 A,,2 z2 | F,>E, D,C,/B,,/ A,,>G,, F,,E,, | %54
w: te- cum sit in per- di- ti- o- nem:|Pe- cu- ni-|a tu- a|te- cum sit in per- di- ti- o- nem:|
 z4 E,3 E, | ^G,>G, G,G, A,3 A, | D,2 z D, E,>F, G,2 | F,F, A,>A, A,2 E,>F, | %58
w: Qui- a|do- num san- cti Spi- ri-|tus te cre- di- di-|sti pe- cu- ni- is com- pa-|
 G,>F, E,/D,/C,/B,,/ A,,G,, A,,2 | E,,4 E,3 E, | ^G,>G, G,G, A,3 A, | D,2 z D, E,>F, G,2 | %62
w: ra- * * * * * * * *|re. Qui- a|do- num san- cti Spi- ri-|tus te cre- di- di-|
 F,F, A,>A, A,2 E,>F, | G,>F, E,/D,/C,/B,,/ A,,G,, A,,2 | E,,8 |] %65
w: sti pe- cu- ni- is com- pa-|ra- * * * * * * * *|re.|

